X:1
T:Title
%%score 1 { 2 | 3 }
L:1/8
Q:1/4=88
M:6/8
K:G
V:1 treble nm="Grand Piano, Soprano"
V:2 treble nm="Choir Pad, Niedersachsen, A T Gorham"
V:3 bass 
V:1
 [B,D][DG]>[DA] [GB][CE]>[DF] | [EG]D[DG]- [DG]3/2 z/ z | [DG][GB]>[Ac] [Bd][FA]>[GB] | %3
w: By~A.~T.~Gorham,~19th~Century * * * * *|||
 [Ac] [GB]2- [GB]3/2 z/ z | [B,D][DG]>[DA] [GB][CE]>[DF] | [EG]D[DG]- [DG]3/2 z/ z | %6
w: |||
 [GB][Gc]>[Gd] [Ge][Gd]>[Ac] | [FA] G2- G3/2 z/ z | [FA][FA]>[EG] [DF][GB]>[FA] | %9
w: |||
 [EG][DF][Fd]- [Fd]3/2 z/ z | [Fd][G^c]>[GB] [GA][GB]>[FA] | [EG] [DF]2- [DF]3/2 z/ z | %12
w: |||
 [DF]/[EG]<[FA][EG]/ [DF][GB]>[FA] | [EG][DF][Fd]- [Fd]3/2 z/ z | [Ad][G^c]>[GB] [GA][EG]>[DF] | %15
w: |||
 [^CE] D2- D3- | D3 z3 |] %17
w: ||
V:2
 G,B,>C DC>[K:bass]G, | CB,B,- B,3/2 z/ z | B,[K:treble]D>D DD>D | D D2- D3/2 z/ z | %4
 G,B,>C DC>[K:bass]G, | CB,B,- B,3/2 z/ z | DE>D CB,>D | C[K:bass] B,2- B,3/2 z/ z | %8
 A,A,>A, A,A,>A, | A,A,A,- A,3/2 z/ z | A,A,>A, A,A,>A, | A, A,2- A,3/2 z/ z | %12
 A,/A,<A,A,/ A,A,>A, | A,A,A,- A,3/2 z/ z | A,A,>A, A,A,>A, | A, F,2- F,3- | F,3 z3 |] %17
V:3
 z G,>G, G,C,>C, | C,G,G,- G,3/2 z/ z | G,G,>G, G,D,>D, | D, G,2- G,3/2 z/ z | z G,>G, G,C,>C, | %5
 C,G,G,- G,3/2 z/ z | G,C,>C, C,D,>D, | D, G,,2- G,,3/2 z/ z | D,D,>D, D,D,>D, | %9
 D,D,D,- D,3/2 z/ z | D,A,,>A,, A,,A,,>A,, | A,, D,2- D,3/2 z/ z | D,/D,<D,D,/ D,D,>D, | %13
 D,D,D,- D,3/2 z/ z | .F,3 z A,,>A,, | A,, D,2- D,3- | D,3 z3 |] %17

